src/assets/icons/settings/lock.svg

<?xml version="1.0" encoding="UTF-8"?>
<svg width="24px" height="24px" viewBox="0 0 24 24" version="1.1" xmlns="http://www.w3.org/2000/svg" xmlns:xlink="http://www.w3.org/1999/xlink">
    <title>形状结合</title>
    <g id="扩展程序" stroke="none" stroke-width="1" fill="none" fill-rule="evenodd">
        <g id="设置" transform="translate(-40.000000, -187.000000)" fill="#6E7585" fill-rule="nonzero">
            <g id="编组-6备份-7" transform="translate(20.000000, 171.000000)">
                <g id="编组-4备份-23" transform="translate(20.000000, 0.000000)">
                    <g id="形状结合-2" transform="translate(0.000000, 16.000000)">
                        <path d="M12,1 C14.9730632,1 17.4410745,3.16238395 17.9170737,6.00019152 L19,6 C20.6568542,6 22,7.34314575 22,9 L22,19 C22,20.6568542 20.6568542,22 19,22 L5,22 C3.34314575,22 2,20.6568542 2,19 L2,9 C2,7.34314575 3.34314575,6 5,6 L6.08292631,6.00019152 C6.55892549,3.16238395 9.02693683,1 12,1 Z M19,8 L5,8 C4.44771525,8 4,8.44771525 4,9 L4,9 L4,19 C4,19.5522847 4.44771525,20 5,20 L5,20 L19,20 C19.5522847,20 20,19.5522847 20,19 L20,19 L20,9 C20,8.44771525 19.5522847,8 19,8 L19,8 Z M12,11 C12.5522847,11 13,11.4477153 13,12 L13,16 C13,16.5522847 12.5522847,17 12,17 C11.4477153,17 11,16.5522847 11,16 L11,12 C11,11.4477153 11.4477153,11 12,11 Z M12,3 C10.1360729,3 8.56991294,4.27489272 8.12595483,6.00024347 L15.8740452,6.00024347 C15.4300871,4.27489272 13.8639271,3 12,3 Z" id="形状结合"></path>
                    </g>
                </g>
            </g>
        </g>
    </g>
</svg>

<svg width="24" height="24" xmlns="http://www.w3.org/2000/svg"><path d="M12 1a6.002 6.002 0 0 1 5.917 5H19a3 3 0 0 1 3 3v10a3 3 0 0 1-3 3H5a3 3 0 0 1-3-3V9a3 3 0 0 1 3-3h1.083A6.002 6.002 0 0 1 12 1zm7 7H5a1 1 0 0 0-1 1v10a1 1 0 0 0 1 1h14a1 1 0 0 0 1-1V9a1 1 0 0 0-1-1zm-7 3a1 1 0 0 1 1 1v4a1 1 0 0 1-2 0v-4a1 1 0 0 1 1-1zm0-8a4.002 4.002 0 0 0-3.874 3h7.748A4.002 4.002 0 0 0 12 3z" fill="#6e7585" fill-rule="nonzero"/></svg>
